X:1
T:Title
%%score { ( 1 4 ) | ( 2 3 ) }
L:1/8
Q:1/4=72
M:6/8
K:Eb
V:1 treble nm="Grand Piano"
V:4 treble 
V:2 bass 
V:3 bass 
V:1
 GEA G2 G | .[B,DB]2 [B,FA] [B,EG]3 | [EG]G[_DEG] [CEB]2 [CEA] | [B,DF]6 | %4
w: S.~M.~Bixby * * * *||||
 [B,DA][B,EA][B,FA] G2 F | E2 F G3 | z3 .d3 | [DB]6 | BBG [Ge]2 [Bd] | .[CAc]2 [CAc] .[EGB]3 | %10
w: ||||||
 [G,=B,FG][EG][_DEG] [CEc]2 [Fc] | [G=B]6 | [AB][GB]G G2 G | GAc B3 | z3 .e3 | e6 | z2 B z3 | E6 |] %18
w: ||||||||
V:2
 [E,B,E][E,G,][E,CE] [E,B,E]2 [E,B,E] | z FD, E,3 | .[C,C]3 z3 | B,,6 | B,,C,D, [E,B,E]2 [A,B,D] | %5
 [G,B,]2 [F,B,D] [E,B,E]3 | [F,B,D][F,B,D][F,DF] .[F,B,F]2 [F,=A,E] | [B,,B,]6 | %8
 [E,G,E][E,G,E][E,B,E] [E,B,]2 [E,B,] | z A,E, z2 B, | D,[C,C][B,,B,] [A,,A,]2 [A,D] | [G,D]6 | %12
 [F,D][E,E][E,B,E] [E,B,E]2 [E,B,E] | _DC[E,A,E] [E,G,E]3 | %14
 [B,,B,][E,B,][K:treble][G,B,G] [B,G]2 [=B,FA] | [CEG]6 | %16
 [B,EG][A,DF][K:bass].[G,B,E] [F,B,D]2 [B,,A,B,] | [E,G,B,]6 |] %18
V:3
 x6 | .B,,3 z3 | z EB,, A,,2 A,, | x6 | x6 | x6 | x6 | x6 | x6 | .E,3 E,3 | x6 | x6 | x6 | %13
 .[E,E]3 z3 | x2[K:treble] x4 | x6 | x2[K:bass] x4 | x6 |] %18
V:4
 x6 | x6 | x6 | x6 | x6 | x6 | BBB z G,c | x6 | x6 | x6 | x6 | x6 | x6 | x6 | [Ge][Ge]e z Ed | x6 | %16
 B.B>B, B2 D | x6 |] %18

